components/ui-node-icon/src/clean/clean.small.svg

<svg width="16" height="16" viewBox="0 0 16 16" fill="none" xmlns="http://www.w3.org/2000/svg">
  <path fill-rule="evenodd" clip-rule="evenodd" d="M8.09098 2.00019C8.40273 2.00761 8.66768 2.23014 8.72884 2.53592C9.00882 3.93585 9.55918 5.01305 10.3355 5.80588C11.1112 6.59813 12.1501 7.14473 13.4707 7.42275C13.7792 7.4877 14 7.75986 14 8.07512C14 8.39038 13.7792 8.66254 13.4707 8.72748C10.903 9.26805 9.13261 11.4452 8.72884 13.4641C8.66798 13.7683 8.40525 13.9904 8.09509 13.9997C7.78493 14.009 7.50937 13.8031 7.4304 13.503C6.87801 11.4039 5.23383 9.26842 2.53592 8.72884C2.23014 8.66768 2.00761 8.40273 2.00019 8.09098C1.99277 7.77923 2.20245 7.50399 2.50498 7.42836C3.92255 7.07396 4.96827 6.52084 5.74456 5.74456C6.52084 4.96827 7.07396 3.92255 7.42836 2.50498C7.50399 2.20245 7.77923 1.99277 8.09098 2.00019ZM4 8.07059C5.53236 8.84168 7.34043 10.6515 8.04619 12C8.72468 10.6683 10.5359 8.87513 12 8.10338C11.2699 7.75664 10.0526 7.06436 9.5 6.5C8.94751 5.93575 8.38314 4.75518 8.04008 4C7.68482 4.73636 7.05166 5.94834 6.5 6.5C5.93244 7.06757 4.76313 7.71045 4 8.07059Z" fill="currentColor"/>
</svg>

<svg xmlns="http://www.w3.org/2000/svg" width="16" height="16" fill="none" viewBox="0 0 16 16">
  <path fill="currentColor" fill-rule="evenodd" d="M8.091 2c.312.008.577.23.638.536.28 1.4.83 2.477 1.607 3.27.775.792 1.814 1.339 3.135 1.617a.667.667 0 0 1 0 1.304c-2.568.541-4.338 2.718-4.742 4.737a.667.667 0 0 1-1.299.039c-.552-2.1-2.196-4.235-4.894-4.774a.667.667 0 0 1-.031-1.3c1.418-.355 2.463-.908 3.24-1.684.776-.777 1.329-1.822 1.683-3.24A.667.667 0 0 1 8.091 2ZM4 8.07c1.532.772 3.34 2.582 4.046 3.93.679-1.332 2.49-3.125 3.954-3.897-.73-.346-1.947-1.039-2.5-1.603-.552-.564-1.117-1.745-1.46-2.5-.355.736-.988 1.948-1.54 2.5-.568.568-1.737 1.21-2.5 1.57Z" clip-rule="evenodd"/>
</svg>
